source/img/insta.svg

<svg width="22" height="22" viewBox="0 0 22 22" fill="none" xmlns="http://www.w3.org/2000/svg">
<path id="insta.svg" d="M22 12.5849C22 10.2076 21.698 7.83019 21.698 5.55189C21.698 4.75944 21.5974 4.06604 21.4967 3.27359C21.3961 2.97642 21.3961 2.58019 21.2954 2.18396C20.9935 1.98585 21.0941 1.58962 20.7922 1.39151C20.3896 1.1934 19.5844 1.29245 19.0811 1.1934C18.3766 1.1934 17.7727 1.09434 17.1688 0.995283C15.2564 0.896226 13.1427 0.896228 11.1297 0.896228C9.11669 0.896228 7.10367 0.79717 5.39261 0.5H3.17829C3.07764 0.5 3.07764 0.599059 2.97699 0.599059C2.37308 0.599059 1.86983 0.797171 1.36657 0.896228C1.16527 0.995284 0.963971 1.09434 0.662018 1.1934C0.561367 1.39151 0.158762 1.29245 0.0581108 1.58962C-0.143191 1.78774 0.259412 2.08491 0.0581108 2.18396V3.07547C0.259412 3.17453 0.0581131 3.66981 0.158764 3.86793V4.85849C0.158764 6.14623 0.259413 7.23585 0.259413 8.52359C0.762667 11.2972 0.662019 14.9623 0.360066 17.8349C0.561368 18.4292 0.76267 18.9245 0.863321 19.5189C1.16527 20.0142 1.16527 20.6085 1.56787 21.0047C2.07113 21.2028 2.77569 21.2028 3.48024 21.2028C3.88284 21.3019 4.1848 21.5 4.5874 21.5C7.40562 21.3019 10.1232 21.3019 13.0421 21.3019C15.7596 21.5 18.8798 21.5 21.3961 21.1038C21.5974 21.0047 21.4967 20.6085 21.5974 20.3113C21.4967 19.9151 21.7987 19.9151 21.7987 19.5189C22 17.4387 22 15.0613 22 12.5849ZM8.91539 6.4434C9.7206 6.24528 10.4252 6.14623 11.331 6.14623C12.0356 6.24528 12.6395 6.4434 13.2434 6.64151C13.344 6.83962 13.0421 7.13679 13.4447 7.33491C13.5453 7.33491 13.5453 7.3349 13.646 7.43396C14.0486 7.43396 14.4512 7.63208 14.7531 7.83019C15.2564 7.92925 15.2564 8.32547 15.8603 8.22642C15.7596 8.42453 15.7596 8.7217 15.7596 9.01887C16.0616 10.2075 16.2629 11.7925 16.0616 13.2783C15.8603 13.4764 15.8603 13.6745 15.7596 13.9717C15.4577 14.2689 15.2564 14.7642 14.9544 15.0613C14.8538 15.2594 14.6525 15.4575 14.4512 15.5566C14.3505 15.7547 14.2499 16.0519 13.9479 16.0519C13.646 16.25 13.344 16.0519 13.1427 15.9528C12.7401 16.1509 12.2369 16.25 11.9349 16.5472C11.1297 16.4481 10.3245 16.3491 9.51929 16.25C9.31799 16.1509 9.01604 15.9528 8.71409 15.9528C8.51278 15.7547 8.21083 15.5566 7.90888 15.4575C7.80823 15.3585 7.60693 15.3585 7.40563 15.2594C7.20432 15.2594 7.20432 15.0613 6.90237 15.0613C6.80172 14.6651 6.49977 14.467 6.39912 13.9717C6.19782 13.6745 6.09716 13.1792 5.89586 12.783C5.89586 11.3962 5.99651 10.1085 6.29846 9.01887C6.60042 8.42453 7.10367 7.92925 7.40563 7.33491C7.60693 7.33491 7.80823 7.23585 7.80823 7.03774C8.11018 7.13679 8.21083 6.93868 8.51278 6.93868C8.71409 6.93868 8.71409 6.64151 8.91539 6.4434ZM7.20432 3.76887C7.10367 3.4717 7.10367 3.07547 7.10367 2.67925C7.10367 2.38208 7.40563 2.38208 7.40563 2.18396C7.40563 2.08491 7.30497 2.08491 7.20432 2.08491C7.30497 1.98585 7.90888 1.98585 8.00953 2.08491C8.11018 2.58019 7.60693 2.58019 7.50628 2.7783C7.50628 2.97642 7.80823 2.7783 8.00953 2.87736C8.00953 3.76887 7.90888 4.36321 8.00953 5.05661H7.50628C7.50628 5.25472 7.70758 5.25472 8.00953 5.25472C7.90888 5.55189 8.11018 5.65094 8.11018 5.84906C7.90888 6.04717 7.40562 5.84906 7.00302 5.94811C7.00302 5.35377 7.30497 4.56132 7.20432 3.76887ZM6.49977 2.18396C6.60042 2.18396 6.60042 2.18396 6.70107 2.28302C6.90237 2.58019 6.70107 2.97642 6.60042 3.17453C6.39911 2.97642 6.60042 2.48113 6.49977 2.18396ZM6.70107 3.96698C6.60042 3.86792 6.49977 3.76887 6.49977 3.4717C6.70107 3.57075 6.70107 3.76887 6.70107 3.96698ZM6.70107 5.35377C6.60042 5.45283 6.60042 5.35377 6.60042 5.15566C6.70107 5.0566 6.70107 5.25472 6.70107 5.35377ZM6.49977 5.55189C6.70107 5.55189 6.60042 5.75 6.70107 5.75C6.70107 5.94812 6.39912 5.94811 6.29846 5.84906C6.39912 5.75 6.49977 5.65094 6.49977 5.55189ZM4.1848 4.36321C4.1848 4.26415 4.1848 4.16509 4.08414 4.16509C3.98349 3.4717 4.1848 2.7783 4.08414 2.18396C4.3861 1.98585 4.88935 2.18396 5.19131 2.08491V3.17453C5.09066 3.27359 4.99 3.27359 4.7887 3.27359C4.68805 3.57076 5.09066 3.37264 5.19131 3.57076C5.19131 4.46227 5.09066 5.35377 5.39261 5.94811C4.7887 5.84906 4.48675 6.04717 3.9835 6.04717C4.08415 5.45283 3.9835 4.66038 4.48675 4.46226C4.48675 4.36321 4.1848 4.46226 4.1848 4.36321ZM3.68154 4.36321C3.48024 4.36321 3.48024 3.86793 3.58089 3.76887C3.88284 3.76887 3.78219 4.26415 3.68154 4.36321ZM3.48024 5.35377C3.58089 5.0566 3.48024 5.0566 3.58089 4.66038C3.78219 4.66038 3.78219 5.45283 3.48024 5.35377ZM3.68154 3.27359C3.37959 3.37264 3.37959 2.97642 3.48024 2.87736C3.78219 2.87736 3.88285 3.17453 3.68154 3.27359ZM3.68154 2.18396C3.68154 2.38208 3.58089 2.38208 3.58089 2.48113C3.37959 2.48113 3.48024 2.28302 3.37959 2.28302C3.48024 2.18396 3.58089 2.18396 3.68154 2.18396ZM3.48024 5.84906C3.58089 5.84906 3.58089 6.14623 3.37959 6.04717C3.48024 6.04717 3.48024 5.94811 3.48024 5.84906ZM2.77568 2.18396C2.77568 2.48113 2.37308 2.48113 2.37308 2.18396H2.77568ZM1.76918 2.28302C1.76918 2.48113 1.46723 2.48113 1.36657 2.67925C1.16527 2.48113 1.46722 2.18396 1.76918 2.28302ZM1.36657 2.97641C1.56788 2.7783 1.86983 2.58019 2.07113 2.38208C2.07113 2.28302 2.17178 2.28302 2.17178 2.18396H2.37308C2.47373 2.58019 2.07113 2.48113 2.07113 2.67925C2.07113 2.7783 1.97048 2.7783 1.97048 2.87736C1.97048 3.17453 2.07113 3.4717 2.07113 3.86793C1.76918 3.86793 1.76918 4.1651 1.46722 4.06604C1.46722 3.66981 1.26592 3.4717 1.36657 2.97641ZM1.46722 6.24529V4.66038C1.66853 4.46226 1.86983 4.26415 2.07113 4.16509C2.37308 4.66038 2.27243 5.55189 2.57438 6.04717C2.17178 6.14623 1.76918 6.14623 1.46722 6.24529ZM19.7857 17.2406C19.685 18.2311 19.5844 19.2217 19.3831 20.0142C16.4642 20.1132 13.344 20.0141 10.4252 20.2123C10.2239 20.2123 10.1232 20.2123 10.2238 20.0142C9.9219 20.0142 9.9219 20.2123 9.72059 20.2123C9.9219 19.9151 10.1232 19.3207 9.9219 18.9245C9.11669 18.9245 9.11669 19.717 8.81474 20.2123C8.11018 20.1132 7.70758 20.3113 7.00302 20.3113C7.20432 19.6179 7.70758 19.3208 7.90888 18.6274C7.50628 18.1321 6.90237 18.7264 6.70107 19.1226C6.49977 19.6179 6.09716 19.9151 5.89586 20.4104H4.88935C5.09066 19.9151 5.39261 19.5189 5.69456 19.0236C5.89586 18.5283 6.29847 18.3302 6.39912 17.6368C6.19782 17.3396 5.99651 17.6368 5.69456 17.6368C5.59391 17.8349 5.39261 17.934 5.29196 18.1321C5.09065 18.5283 4.7887 18.8255 4.5874 19.2217C4.3861 19.4198 4.28545 19.2217 4.08414 19.4198C3.68154 19.717 3.48024 20.1132 3.07764 20.4104C2.87633 20.3113 3.07764 20.0142 3.27894 20.0142C3.27894 19.816 3.17829 19.5189 3.37959 19.4198C3.48024 19.0236 3.58089 18.8255 3.78219 18.5283C3.88284 17.8349 4.28545 17.3396 4.48675 16.6462C3.88284 16.7453 3.78219 17.2406 3.48024 17.6368C3.27894 18.033 2.97699 18.4292 2.77568 18.9245C2.57438 18.8255 2.77569 18.3302 2.67503 18.1321C2.77569 17.5377 2.97699 17.0424 3.07764 16.4481C3.17829 16.25 3.27894 15.9528 3.27894 15.6557C3.48024 15.4575 3.27894 15.0613 3.17829 14.8632C2.97699 14.8632 2.77569 14.9623 2.67503 15.1604C2.47373 15.1604 2.47373 15.6557 2.37308 15.4575C2.37308 12.8821 1.86983 10.7028 1.86983 8.12736C1.86983 7.83019 1.66853 7.73113 1.66853 7.43396C3.27894 7.43396 4.7887 7.53302 6.49977 7.63207C6.39912 7.73113 6.29847 7.92925 6.19781 8.0283C6.09716 8.12736 5.99651 8.22642 5.79521 8.32547C5.1913 10.0094 4.7887 12.2877 5.19131 14.467C5.39261 15.0613 5.79521 15.4575 6.19781 15.8538C7.10367 16.3491 7.80823 16.9434 8.71409 17.5377C10.4252 17.934 12.5388 17.934 14.2499 17.5377C14.4512 17.4387 14.7531 17.3396 14.9544 17.1415C16.3636 15.9528 17.7727 14.6651 17.974 12.2877V10.9009C17.7727 9.31604 17.2694 8.0283 16.2629 7.33491C16.5648 7.13679 17.3701 7.3349 17.974 7.43396C18.1753 7.43396 18.3766 7.43396 18.6785 7.43396C19.0811 7.43396 19.5844 7.3349 20.0876 7.43396C20.1883 7.63207 20.1883 7.92925 20.2889 8.22642C20.1883 9.91038 20.0876 11.4953 20.0876 13.2783C20.1883 13.7736 20.1883 14.2689 20.2889 14.6651C20.0876 15.4575 19.987 16.3491 19.7857 17.2406ZM20.1883 6.14623C19.5844 6.04717 18.9805 5.84906 18.2759 5.75C18.3766 5.45283 19.0811 5.75 19.2824 5.55189C19.685 5.35378 19.5844 4.66038 19.5844 4.06604C19.5844 3.76887 19.685 3.4717 19.685 2.97641C19.2824 1.98585 17.8733 2.58019 16.7661 2.48113C16.5648 3.17453 16.2629 4.26415 16.4642 5.15566C16.6655 5.65094 17.4707 5.45283 17.974 5.65094C17.8733 5.94811 17.2694 5.75 16.9675 5.75C16.6655 5.65095 16.2629 5.65094 15.9609 5.55189C13.646 5.65094 11.633 5.55189 9.41864 5.75C9.51929 4.56132 9.51929 3.27359 9.31799 2.18396H12.4382C12.1362 2.58019 11.5323 2.67924 11.1297 2.97641C10.7271 3.17453 10.2238 3.4717 10.0225 3.86793C10.2238 3.96698 10.5258 3.66981 10.8278 3.4717C11.2304 3.37264 11.331 3.07547 11.633 2.97641C12.0356 2.58019 12.7401 2.38208 13.344 2.08491C13.7466 2.08491 14.0486 2.08491 14.3505 2.18396C15.659 2.18396 16.8668 2.28302 18.1753 2.28302C18.7792 2.38208 19.685 2.38208 20.1883 2.58019C20.2889 2.87736 20.3896 3.17453 20.4902 3.4717C20.3896 4.46226 20.1883 5.25472 20.1883 6.14623ZM14.2499 2.48113C14.3505 2.38208 14.2499 2.38208 14.2499 2.48113V2.48113ZM14.2499 2.48113C13.7466 2.67924 13.2434 2.7783 12.8408 3.17453C13.344 2.97642 13.9479 2.87736 14.2499 2.48113ZM15.357 3.07547C15.4577 2.97642 15.357 2.97642 15.357 3.07547V3.07547ZM13.5453 3.96698C14.2499 3.76887 14.7531 3.37264 15.2564 3.07547C14.8538 3.07547 14.6525 3.37264 14.2499 3.4717C14.1492 3.66981 13.7466 3.66981 13.5453 3.96698ZM12.8408 3.17453C12.7401 3.17453 12.9414 3.27359 12.8408 3.17453V3.17453ZM12.2369 3.76887C12.3375 3.66981 12.2369 3.66981 12.2369 3.76887V3.76887ZM12.1362 3.86793C12.2369 3.86793 12.2369 3.76887 12.1362 3.86793C12.1362 3.76887 12.1362 3.76887 12.1362 3.86793ZM12.0356 3.86793C12.1362 3.86793 12.1362 3.86793 12.0356 3.86793C12.0356 3.76887 12.0356 3.86793 12.0356 3.86793ZM11.2304 4.46226C11.5323 4.36321 11.8343 4.1651 12.0356 3.86793C11.7336 4.06604 11.4317 4.26415 11.2304 4.46226ZM13.5453 5.45283C14.0486 5.45283 14.2499 5.0566 14.7531 4.95755C15.0551 4.66038 15.5583 4.56132 15.7596 4.16509C15.1557 4.16509 14.9544 4.56132 14.5518 4.66038C14.2499 5.0566 13.7466 5.15566 13.5453 5.45283ZM11.2304 4.46226C10.9284 4.46226 11.2304 4.75943 11.2304 4.46226V4.46226ZM10.6265 4.85849C10.7271 4.85849 10.8278 4.85849 10.6265 4.85849C10.7271 4.75943 10.6265 4.85849 10.6265 4.85849ZM13.5453 5.45283C13.344 5.55189 13.5453 5.55189 13.5453 5.45283V5.45283ZM12.3375 7.23585C12.1362 7.03774 11.633 7.03774 11.331 6.83962C10.6265 6.83962 10.1232 6.93868 9.61994 7.03774C9.31799 7.23585 9.01604 7.33491 8.71409 7.53302C8.41213 7.73113 8.31148 7.92925 7.90888 8.0283C7.70758 8.22642 7.50628 8.52358 7.20432 8.62264C7.20432 8.82075 7.00302 8.91981 6.90237 9.01887C6.80172 9.11792 6.80172 9.31604 6.70107 9.41509C6.70107 9.51415 6.70107 9.71227 6.60042 9.71227C6.70107 11.1981 6.90237 12.5849 7.30497 13.8726C7.60693 14.467 8.31148 14.6651 8.71409 15.1604C9.31799 15.4575 10.0225 15.5566 10.8278 15.6557C11.1297 15.5566 11.4317 15.5566 11.7336 15.5566C12.9414 15.3585 13.8473 14.8632 14.5518 14.1698C14.6525 13.8726 14.8538 13.6745 15.0551 13.4764C14.7531 12.783 15.357 12.3868 15.5583 11.8915C15.5583 10.6038 15.357 9.41509 14.9544 8.52359C14.6525 7.92925 14.0486 7.73113 13.5453 7.43396C13.4447 7.43396 13.344 7.43396 13.344 7.33491C13.1427 7.23585 12.6395 7.13679 12.3375 7.23585ZM8.91539 11.5943C8.81474 11.4953 8.81474 11.3962 8.71409 11.1981C9.01604 11.0991 8.91539 11.3962 8.91539 11.5943ZM9.01604 11.8915C9.01604 11.7925 9.11669 11.8915 9.01604 11.8915C9.01604 12.0896 9.01604 11.9906 9.01604 11.8915ZM9.41864 9.81132C9.41864 9.71226 9.51929 9.81132 9.41864 9.81132C9.51929 9.91038 9.41864 9.91038 9.41864 9.81132ZM11.1297 7.73113C10.9284 8.0283 11.1297 8.32547 11.2304 8.52359C10.9284 8.52359 10.6265 7.73113 11.1297 7.73113ZM11.5323 11.5943C11.4317 11.5943 11.5323 11.5943 11.5323 11.5943C11.633 11.5943 11.5323 11.6934 11.5323 11.5943ZM12.2369 14.467C12.2369 14.3679 12.3375 14.467 12.4382 14.467C12.4382 14.566 12.2369 14.566 12.2369 14.467ZM14.4512 11.9906C14.2499 11.8915 14.3505 12.1887 14.0486 12.1887C14.1492 11.9906 14.1492 11.8915 14.2499 11.6934C14.4512 11.6934 14.5518 11.7924 14.4512 11.9906ZM13.344 8.22642C13.5453 8.32547 13.7466 8.42453 13.9479 8.62264C14.0486 8.82075 14.1492 9.01887 14.3505 9.11792C14.4512 9.91038 14.5518 10.6038 14.5518 11.4953C14.2499 11.5943 14.1492 11.7925 13.8473 11.8915C13.0421 11.8915 12.4382 11.6934 11.9349 11.3962C11.7336 11.0991 11.5323 10.9009 11.4317 10.6038V9.51415C11.633 9.31604 11.7336 9.11792 11.9349 8.91981C12.1362 8.82075 12.4382 8.7217 12.4382 8.32547C12.4382 8.22642 12.3375 8.22641 12.3375 8.12736C12.5388 8.12736 12.5388 8.32547 12.7401 8.32547C12.9414 8.32547 13.0421 8.12736 13.344 8.22642Z" fill="#231F20"/>
</svg>

<svg width="22" height="22" viewBox="0 0 22 22" fill="none" xmlns="http://www.w3.org/2000/svg"><path d="M22 12.58c0-2.37-.3-4.75-.3-7.03 0-.8-.1-1.48-.2-2.28-.1-.3-.1-.69-.2-1.09-.3-.2-.2-.59-.5-.79-.41-.2-1.22-.1-1.72-.2-.7 0-1.3-.1-1.91-.2-1.91-.1-4.03-.1-6.04-.1S7.1.8 5.39.5H3.18c-.1 0-.1.1-.2.1-.6 0-1.11.2-1.61.3-.2.1-.4.2-.7.3-.1.2-.51.1-.61.39-.2.2.2.5 0 .6v.89c.2.1 0 .59.1.79v.99c0 1.29.1 2.38.1 3.66.5 2.78.4 6.44.1 9.31.2.6.4 1.1.5 1.69.3.5.3 1.09.7 1.48.51.2 1.22.2 1.92.2.4.1.7.3 1.1.3 2.83-.2 5.54-.2 8.46-.2 2.72.2 5.84.2 8.36-.2.2-.1.1-.5.2-.79-.1-.4.2-.4.2-.8.2-2.07.2-4.45.2-6.93zM8.92 6.44c.8-.2 1.5-.3 2.41-.3.7.1 1.3.3 1.91.5.1.2-.2.5.2.7.1 0 .1 0 .2.1.4 0 .81.2 1.11.39.5.1.5.5 1.11.4-.1.2-.1.5-.1.79.3 1.19.5 2.77.3 4.26-.2.2-.2.4-.3.7-.3.29-.5.78-.8 1.08-.1.2-.3.4-.5.5-.11.2-.21.5-.51.5-.3.19-.6 0-.8-.1-.41.2-.91.29-1.22.59l-2.41-.3c-.2-.1-.5-.3-.8-.3-.2-.2-.5-.4-.81-.5-.1-.1-.3-.1-.5-.2-.2 0-.2-.19-.5-.19-.1-.4-.41-.6-.51-1.09-.2-.3-.3-.8-.5-1.19 0-1.38.1-2.67.4-3.76.3-.6.8-1.1 1.1-1.69.2 0 .4-.1.4-.3.31.1.41-.1.71-.1.2 0 .2-.29.4-.49zM7.2 3.77c-.1-.3-.1-.7-.1-1.1 0-.29.3-.29.3-.49 0-.1-.1-.1-.2-.1.1-.1.7-.1.81 0 .1.5-.4.5-.5.7 0 .2.3 0 .5.1 0 .89-.1 1.48 0 2.18h-.5c0 .2.2.2.5.2-.1.3.1.4.1.59-.2.2-.7 0-1.1.1 0-.6.3-1.39.2-2.18zm-.7-1.59c.1 0 .1 0 .2.1.2.3 0 .7-.1.9-.2-.2 0-.7-.1-1zm.2 1.79c-.1-.1-.2-.2-.2-.5.2.1.2.3.2.5zm0 1.38c-.1.1-.1 0-.1-.2.1-.1.1.1.1.2zm-.2.2c.2 0 .1.2.2.2 0 .2-.3.2-.4.1.1-.1.2-.2.2-.3zM4.18 4.36c0-.1 0-.2-.1-.2-.1-.69.1-1.38 0-1.98.3-.2.8 0 1.11-.1v1.1c-.1.1-.2.1-.4.1-.1.3.3.1.4.3 0 .88-.1 1.77.2 2.37-.6-.1-.9.1-1.4.1.1-.6 0-1.39.5-1.59 0-.1-.3 0-.3-.1zm-.5 0c-.2 0-.2-.5-.1-.6.3 0 .2.5.1.6zm-.2 1c.1-.3 0-.3.1-.7.2 0 .2.8-.1.7zm.2-2.09c-.3.1-.3-.3-.2-.4.3 0 .4.3.2.4zm0-1.09c0 .2-.1.2-.1.3-.2 0-.1-.2-.2-.2.1-.1.2-.1.3-.1zm-.2 3.67c.1 0 .1.3-.1.2.1 0 .1-.1.1-.2zm-.7-3.67c0 .3-.4.3-.4 0h.4zm-1.01.1c0 .2-.3.2-.4.4-.2-.2.1-.5.4-.4zm-.4.7c.2-.2.5-.4.7-.6 0-.1.1-.1.1-.2h.2c.1.4-.3.3-.3.5 0 .1-.1.1-.1.2 0 .3.1.6.1.99-.3 0-.3.3-.6.2 0-.4-.2-.6-.1-1.1zm.1 3.27V4.66c.2-.2.4-.4.6-.5.3.5.2 1.4.5 1.89-.4.1-.8.1-1.1.2zm18.32 11c-.1.98-.2 1.97-.4 2.76-2.93.1-6.05 0-8.96.2-.2 0-.3 0-.2-.2-.3 0-.3.2-.5.2.2-.3.4-.89.2-1.29-.81 0-.81.8-1.12 1.3-.7-.1-1.1.1-1.8.1.2-.7.7-1 .9-1.7-.4-.49-1 .1-1.2.5-.21.5-.61.8-.81 1.29H4.89c.2-.5.5-.9.8-1.39.2-.5.6-.69.7-1.38-.2-.3-.4 0-.7 0-.1.2-.3.3-.4.5-.2.39-.5.69-.7 1.08-.2.2-.3 0-.5.2-.4.3-.61.7-1.01.99-.2-.1 0-.4.2-.4 0-.2-.1-.5.1-.59.1-.4.2-.6.4-.9.1-.69.5-1.18.7-1.87-.6.1-.7.6-1 .99-.2.4-.5.79-.7 1.28-.2-.1 0-.59-.1-.79.1-.6.3-1.09.4-1.68.1-.2.2-.5.2-.8.2-.2 0-.59-.1-.79-.2 0-.4.1-.5.3-.2 0-.2.5-.3.3 0-2.58-.51-4.76-.51-7.33 0-.3-.2-.4-.2-.7 1.6 0 3.12.1 4.83.2-.1.1-.2.3-.3.4-.1.1-.2.2-.4.3-.6 1.68-1.01 3.96-.6 6.14.2.6.6.99 1 1.38.9.5 1.6 1.1 2.51 1.69 1.72.4 3.83.4 5.54 0 .2-.1.5-.2.7-.4 1.41-1.19 2.82-2.47 3.02-4.85V10.9c-.2-1.58-.7-2.87-1.7-3.57.3-.2 1.1 0 1.7.1h.7c.41 0 .91-.1 1.42 0 .1.2.1.5.2.8-.1 1.68-.2 3.27-.2 5.05.1.5.1.99.2 1.39-.2.79-.3 1.68-.5 2.57zm.4-11.1c-.6-.1-1.21-.3-1.91-.4.1-.3.8 0 1-.2.4-.2.3-.89.3-1.48 0-.3.1-.6.1-1.1-.4-.98-1.8-.39-2.91-.49-.2.7-.5 1.78-.3 2.68.2.5 1 .3 1.5.5-.1.29-.7.09-1 .09-.3-.1-.7-.1-1-.2-2.32.1-4.34 0-6.55.2.1-1.19.1-2.48-.1-3.57h3.12c-.3.4-.9.5-1.31.8-.4.2-.9.5-1.1.89.2.1.5-.2.8-.4.4-.1.5-.4.8-.5.4-.39 1.11-.59 1.71-.89.4 0 .7 0 1.01.1 1.3 0 2.52.1 3.83.1.6.1 1.5.1 2 .3l.31.9c-.1.98-.3 1.77-.3 2.67zm-5.94-3.67c.1-.1 0-.1 0 0zm0 0c-.5.2-1 .3-1.4.7.5-.2 1.1-.3 1.4-.7zm1.1.6c.1-.1 0-.1 0 0zm-1.8.89c.7-.2 1.2-.6 1.7-.9-.4 0-.6.3-1 .4-.1.2-.5.2-.7.5zm-.7-.8c-.11 0 .1.1 0 0zm-.61.6c.1-.1 0-.1 0 0zm-.1.1c.1 0 .1-.1 0 0 0-.1 0-.1 0 0zm-.1 0c.1 0 .1 0 0 0 0-.1 0 0 0 0zm-.81.6c.3-.1.6-.3.8-.6-.3.2-.6.4-.8.6zm2.32.98c.5 0 .7-.4 1.2-.5.3-.29.8-.39 1.01-.78-.6 0-.8.4-1.2.49-.31.4-.81.5-1.01.8zm-2.32-.99c-.3 0 0 .3 0 0zm-.6.4c.1 0 .2 0 0 0 .1-.1 0 0 0 0zm2.92.6c-.2.1 0 .1 0 0zm-1.21 1.78c-.2-.2-.7-.2-1-.4-.71 0-1.22.1-1.72.2-.3.2-.6.3-.9.5-.3.2-.4.39-.81.49-.2.2-.4.5-.7.6 0 .2-.2.29-.3.39-.1.1-.1.3-.2.4 0 .1 0 .3-.11.3a18 18 0 00.7 4.15c.3.6 1.01.8 1.41 1.29.6.3 1.31.4 2.12.5.3-.1.6-.1.9-.1 1.21-.2 2.12-.7 2.82-1.39.1-.3.3-.5.5-.7-.3-.69.3-1.08.5-1.58 0-1.29-.2-2.47-.6-3.37-.3-.6-.9-.79-1.4-1.09-.1 0-.2 0-.2-.1-.2-.1-.71-.2-1.01-.1zm-3.42 4.35c-.1-.1-.1-.2-.2-.4.3-.1.2.2.2.4zm.1.3c0-.1.1 0 0 0 0 .2 0 .1 0 0zm.4-2.08c0-.1.1 0 0 0 .1.1 0 .1 0 0zm1.71-2.08c-.2.3 0 .6.1.8-.3 0-.6-.8-.1-.8zm.4 3.86c-.1 0 0 0 0 0 .1 0 0 .1 0 0zm.7 2.88c0-.1.1 0 .2 0 0 .1-.2.1-.2 0zm2.22-2.48c-.2-.1-.1.2-.4.2.1-.2.1-.3.2-.5.2 0 .3.1.2.3zm-1.1-3.76c.2.1.4.2.6.4.1.2.2.39.4.49.1.79.2 1.48.2 2.38-.3.1-.4.3-.7.4-.8 0-1.41-.2-1.92-.5-.2-.3-.4-.5-.5-.8V9.51c.2-.2.3-.4.5-.59.2-.1.5-.2.5-.6 0-.1-.1-.1-.1-.2.2 0 .2.2.41.2.2 0 .3-.2.6-.1z" fill="#231F20"/></svg>
